X:1
T:Come, Thou Holy Spirit, Come
T: Arranged by Henry Ley
T:John Henry Fowler
T:Come, Thou Holy Spirit, Come
T:Copyright © CPDL
T:Copyright © CPDL
T:Copyright © CPDL
T:Copyright © CPDL
T:Copyright © CPDL
T:Copyright © CPDL
T:Copyright © CPDL
T:Copyright © CPDL
T:Copyright © CPDL
T:Copyright © CPDL
T:Copyright © CPDL
C:Arranged by Henry Ley
Z:John Henry Fowler
Z:Copyright © CPDL
%%score [ 1 2 3 ( 4 5 ) ]
L:1/8
Q:1/4=220
M:3/2
K:A
V:1 treble nm="SOPRANO" snm="S."
V:2 treble nm="ALTO" snm="A."
V:3 treble-8 transpose=-12 nm="TENOR" snm="T."
V:4 bass nm="BASS" snm="B."
V:5 bass 
V:1
"^( Revision:  1-6-2006 )"!pp!"^Moderato" F8 F4 | A8"^13th Century German Melody" c4 | (B4 A4) G4 | %3
w: Come, Thou|Ho- ly|Spi- * rit,|
 A12 ||!<(! c8 c4!<)! | e8 c4 |!>(! A8 G4!>)! |!mf! A12 || !>!c8 A4 | (G4 A4) B4 | (A4 G4) F4 | %11
w: come,|And from|Thy ce-|\-~les- tial|home|Shed a|ray _ of|light _ Di-|
 G8!f! F4 | (E6 F2 G4 | A8) G4 |"^cresc." A8 c4 | (!>!e6 d2) c4 | A8!>(! G4 | F8 ^E4 | F8!>)! z4 || %19
w: vine, Hal-|\-~le- * *|* lu-|jah, Hal-|le- * lu-|ia, Hal-|le- lu-|jah~!|
"^Sopr  I" c8 f4 | e8 c4 | (d4 c4) B4 | c12 || (e4 d4) c4 | B8 (c2 d2) | (e4 c4) B4 | c12 || %27
w: Come, Thou|Fa- ther|of _ the|poor,|Come, _ Thou|source of _|all _ our|store,|
 (c4 d4) e4 | e8 d4 | ((c4 e4)) ^d4 | e8 f4 | (!>!g6 f2 e2 d2 | c6 d2) e4 | c8 e4 | B8 (c2 d2) | %35
w: Come, _ with-|in our|bo- * soms|shrine, Hal-|le- * * *|* * lu-|jah, Hal-|le- lu- *|
 e8!ff! ^e4 | (f4 =e2 d2) (c2 B2) | A12 ||"^Sopr." F8 F4 | A8 e4 | (B4 A4) G4 | A12 || %42
w: jah, Hal-|le- * * lu- *|jah~!|Thou of|Com- fort-|ers _ the|best,|
!<(! c8!<)! c4 | e8 c4 | A8 ^G4 |!pp!!>(! A12!>)! || c8 A4 | (G4 A4) B4 | (A4 G4) F4 | G8!ff! F4 | %50
w: Thou the|soul's most|wel- come|guest,|Sweet re-|fresh- * ment|here _ be-|low, Hal-|
 (E6 F2 G4 | A8) G4 | A8!ff! c4 | (!>!e6 d2) c4 | A8!>(! G4 | F8!>)!!p! ^E4 | F12 || %57
w: le- * *|* lu-|jah, Hal-|le- * lu-|jah, Hal-|le- lu-|jah~!|
"^Solo voices or chorus" z12 | z12 | z12 |!pp! z12 || c8 c4 | e8 c4 | (A4 f4) e4 | c12 || z12 | %66
w: ||||Grate- ful|cool- ness|in _ the|heat,||
 z12 | z12 |"^a tempo""^Choir" z4 z4!f! c4 | (e8 d4 | c8) B4 |!ff! A8 A4 | B8 (e2 d2) | %73
w: ||Hal-|le- *|\- \-~lu-|\-~jah, Hal-|le- lu- *|
 (c4 A4)!>(! G4 | F8 ^E4!>)! | F12 ||!f! d8 d4 | (c6 B2) A4 | (B4 A4) G4 | A12 || E8 A4 | %81
w: jah, _ Hal-|le- lu-|jah~!|On the|faith- * ful|who _ a-|dore,|And con-|
 (G4 e4) c4 | A8 G4 | A12 | A8 e4 | !>!e8 d4 | (c4 B4) A4 |"^cresc." G8 A4 | (B4 e4 d4 | %89
w: fess _ Thee|ev- er-|more,|In Thy|seven- fold|gifts _ de-|scend, Hal-|le- * *|
 c4 A4) B4 | c8!ff! e4 | (!>!e4 f4) (e2 d2) | c8 B4 | (A4 d4) c4 | c12 || !>!d8 d4 | e8 A4 | %97
w: * * lu-|\-~jah, Hal-|le- * lu- *|jah, Hal-|le- * lu-|jah~!|Give them|vir- tue's|
 (B6 c2) d4 | c12 || !>!e8 A4 | B8 c4 | A8 G4 | F12 || c8 ^d4 | e8 (=d2 e2) | (c4 B4) A4 | G8 F4 | %107
w: sure _ re-|ward,|Give them|Thy sal-|\-~va- tion,|Lord,|Give them|joys that _|ne- * er|end, Hal-|
 (E6 F2 G4 | A8) G4 | (A4 B4)!<(! c4 | (B4!<)! e6) d2 | c8 B4 | (A4 B4)!>(! G4!>)! | F12 | %114
w: \-~le- * *|* lu-|jah, _ Hal-|le- * lu-|jah, Hal-|\-~le- * lu-|jah,|
 (!>!d8 B4 | !>!f4 e4 d4- | d4 c4 B4) | !fermata!c12 |] %118
w: A- *|||\-~men.|
V:2
 C8 C4 | F8 F4 | (F4 E4) E4 | E12 ||!<(! E8 E4!<)! | (E4 F4) G4 |!>(! F8 E4!>)! |!mf! E12 || %8
w: Come, Thou|Ho- ly|Spi- * rit,|come,|And from|Thy _ ce-|\-~les- tial|home|
 E8 E4 | E8 D4 | C8 ^D4 | ^E8!f! C4 | (B,8 E4 | E4 F4) E4 |"^cresc." E8 A4 | G8 A4 | E8!>(! E4 | %17
w: Shed a|ray of|light Di-|vine, Hal-|\-~le- *|* * lu-|jah, Hal-|le- lu-|ia, Hal-|
 (C4 D4) C4!>)! | C12 ||"^Sopr  II" A8 A4 | (c4 B4) A4 | (G4 A4) B4 | A12 || A8 A4 | %24
w: le- * lu-|jah~!|Come, Thou|Fa- * ther|of _ the|poor,|Come, Thou|
 (A4 G4) (A2 B2) | (c4 e8) | A12 || (A4 B4) c4 | B8 (F2 G2) | (A4 B4) A4 | (B4 c4) ^d4 | %31
w: source _ of _|all _|store,|Come, _ with-|in our *|bo- * soms|shrine, _ Hal-|
 (e6 =d2 c2 B2 | A8) B4 | A8 A4 | G8 (A2 B2) | c8!ff! B4 | (A4 c2 B2) (A2 G2) | F12 || %38
w: le- * * *|* lu-|jah, Hal-|le- lu- *|jah, Hal-|le- * * lu- *|jah~!|
"^Alto" D8 D4 | E8 A4 | F8 F4 | F12 ||!<(! (A4 G4)!<)! F4 | G8 G4 | F8 ^E4 |!pp!!>(! F12!>)! || %46
w: Thou of|Com- fort-|ers the|best,|Thou _ the|soul's most|wel- come|guest,|
 G8 F4 | E8 F4 | E8 C4 | E8!ff! D4 | (C8 D4 | E8) E4 | C8!ff! A4 | (B2 A2 G4) A4 | %54
w: Sweet re-|fresh- ment|here be-|low, Hal-|le- *|* lu-|jah, Hal-|le- * * lu-|
 (A4 F6)!>(! ^E2 | (F4 C4)!>)! C4 |!p! C12 || z12 | z12 | z12 |!pp! z12 || (A4 G4) [FA]4 | %62
w: jah, _ Hal-|le- * lu-|jah~!|||||Grate- * ful|
 ([GB]4 [FA]4) [EG]4 | ([FA]4 D4) [EG]4 | A12 || z12 | z12 | z12 | z4 z4!f! A4 | (G6 A2 B4 | %70
w: cool- * ness|in _ the|heat,||||Hal-|le- * *|
 A4 C2 D2) E4 | E8!ff! F4 | (G2 F2 E4) E4 | E8!>(! E4 | (C4 D4) C4!>)! | C12 ||!f! F8 F4 | E8 F4 | %78
w: * \- * \-~lu-|\-~jah, Hal-|le- * * lu-|jah, Hal-|le- * lu-|jah~!|On the|faith- ful|
 F8 E4 | E12 || E8 E4 | (E6 F2) G4 | (A4 F4) E4 | E12 | E8 A4 | (G4 A4) B4 | (A4 G4) F4 | %87
w: who a-|dore,|And con-|fess _ Thee|ev- * er-|more,|In Thy|seven- * fold|gifts _ de-|
"^cresc." ^E8 F4 | (=E6 F2 G4 | A4 E2 F2) G4 | A8!ff! A4 | (B4 G4) (A2 B2) | (B4 A4) G4 | F8 ^E4 | %94
w: scend, Hal-|le- * *|* * * lu-|\-~jah, Hal-|le- * lu- *|jah, _ Hal-|le- lu-|
 F12 || !>!F8 G4 | E8 (A2 =G2) | (F4 A4) ^G4 | A12 || !>!A8 A4 | (E4 F4) G4 | (E4 F4) E4 | C12 || %103
w: jah~!|Give them|vir- tue's _|sure _ re-|ward,|Give them|Thy _ sal-|\-~va- * tion,|Lord,|
 (A4 G4) F4 | (G4 A4) B4 | (A4 E4) ^D4 | (E4 B,4) (A,2 B,2) | (C4 E4 D4 | E4 F4) E4 | E8!<(! ^D4 | %110
w: Give _ them|joys _ that|ne- * er|end, _ Hal- *|\-~le- * *|* * lu-|jah, Hal-|
 (E2 F2!<)! G4) G4 | A8 G4 | (F4 G4)!>(! ^E4 | (F8!>)! =E4) | (!>!D4 E4 F4- | F4 ^G8 | F12) | %117
w: le- * * lu-|jah, Hal-|\-~le- * \-~le-|jah, _|A- * *|||
 !fermata!F12 |] %118
w: \-~men.|
V:3
 A8 A4 | c8 A4 | (d4 c4) B4 | c12 ||!<(! A8 A4!<)! | B8 e4 |!>(! (c4 d4) B4!>)! |!mf! c12 || %8
w: Come, Thou|Ho- ly|Spi- * rit,|come,|And from|Thy ce-|\-~les- * tial|home|
 (A4 B4) c4 | (B4 A4) G4 | (F4 G4) A4 | G8!f! A4 | (G6 A2 B4 | c8) B4 |"^cresc." A8 A4 | %15
w: Shed _ a|ray _ of|light _ Di-|vine, Hal-|\-~le- * *|* lu-|jah, Hal-|
 B8 (c2 d2) | (e4 c4)!>(! B4 | (A4 B4) G4!>)! | A12 ||"^Tenor" F8 F4 | A8 c4 | (B4 A4) G4 | A12 || %23
w: le- lu- *|ia, _ Hal-|le- * lu-|jah~!|Come, Thou|Fa- ther|of _ the|poor,|
 c8 c4 | d8 c4 | A8 G4 | A12 || c8 A4 | (G4 A4) B4 | (A4 G4) F4 | G8 F4 | (E6 F2 G4 | A8) G4 | %33
w: Come, Thou|source of|all our|store,|Come, with-|in _ our|bo- * soms|shrine, Hal-|le- * *|* lu-|
 A8 c4 | (e6 d2) c4 | A8!ff! G4 | F8 ^E4 | F12 ||"^Tenor" A8 B4 | c8 e4 | (d4 c4) B4 | c12 || %42
w: jah, Hal-|le- * lu-|jah, Hal-|le- lu-|jah~!|Thou of|Com- fort-|ers _ the|best,|
!<(! (F4 G4)!<)! A4 | (B4 e4) d4 | c8 c4 |!pp!!>(! c12!>)! || (G4 c4) c4 | e8 d4 | (c4 B4) A4 | %49
w: Thou _ the|soul's _ most|wel- come|guest,|Sweet * re-|fresh- ment|here _ be-|
 B8!ff! (B2 A2) | (G6 A2 B4 | c8) B4 | (A4 G4)!ff! F4 | (G2 A2 B4) (c2 d2) | (e4 f4)!>(! d4 | %55
w: low, Hal- *|le- * *|* lu-|jah, * Hal-|le- * * lu- *|jah, _ Hal-|
 (c4 B2 A2)!>)! B4 |!p! A12 ||!p! F8 F4 | A8 c4 | (d4 c4) e4 | c12 || z12 | z12 | z12 | z12 || %65
w: le- * * lu-|jah~!|In our|la- bor|rest _ most|sweet,|||||
 (c4 d4) e4 | e8 d4 |"^poco rit." c8 c4 | c8!f! A4 | (B4 e8 | e8) (d2 c2) | c8!ff! c4 | %72
w: Sol- * ace|in the|midst of|woe. Hal-|le- *|\- \-~lu- *|\-~jah, Hal-|
 (e6 d2) (c2 B2) | (A4 c4)!>(! B4 | A8 G4!>)! | A12 ||!f! A8 A4 | (A6 B2) c4 | (d4 c4) B4 | c12 || %80
w: le- * lu- *|jah, _ Hal-|le- lu-|jah~!|On the|faith- * ful|who _ a-|dore,|
 (e4 d4) c4 | B8 e4 | (e6 d2) B4 | c12 | c8 c4 | B8 B4 | (c4 d4) (c2 ^B2) |"^cresc." c8 c4 | %88
w: And _ con-|fess Thee|ev- * er-|more,|In Thy|seven- fold|gifts _ de- *|scend, Hal-|
 (B8 e4- | e4 c4) d4 | e8!ff! c4 | (e6 d2) (c2 B2) | (A4 c4) (e2 d2) | (c4 B4) G4 | ^A12 || %95
w: le- *|* * lu-|\-~jah, Hal-|le- * lu- *|jah, _ Hal- *|le- * lu-|jah~!|
 !>!B8 B4 | (B4 A4) e4 | !>!f8 e4 | e12 || !>!c8 c4 | e8 e4 | (e4 d4) B4 | A12 || (c4 B4) A4 | %104
w: Give them|vir- * tue's|sure re-|ward,|Give them|Thy sal-|\-~va- * tion,|Lord,|Give _ them|
 B8 e4 | e8 A4 | (B4 e4) d4 | (c8 d4 | c4 d4) B4 | A8!<(! A4 | (G2 A2!<)! B4) (c2 d2) | %111
w: joys that|ne- er|end, _ Hal-|\-~le- *|* * lu-|jah, Hal-|le- * * lu- *|
 e8 (e2 d2) | (c4 d4)!>(! c4 | (c4 B4!>)! ^A4) | (B12 | d4 c4 B4 | B4 ^A4 G4) | !fermata!^A12 |] %118
w: jah, Hal- *|\-~le- * \-~le-|jah, _ _|A-|||\-~men.|
V:4
 F,8 F,4 | F,8 F,4 | (D,4 E,4) E,4 | A,,12 ||!<(! A,8 A,4!<)! | G,8 E,4 |!>(! (F,4 D,4) E,4!>)! | %7
w: Come, Thou|Ho- ly|Spi- * rit,|come,|And from|Thy ce-|\-~les- * tial|
!mf! A,,12 || A,8 C,4 | E,8 ^E,4 | F,8 F,4 | C,8!f! F,4 | (G,6 F,2 E,2 D,2 | C,4 D,4) E,4 | %14
w: home|Shed a|ray of|light Di-|vine, Hal-|\-~le- * * *|* * lu-|
"^cresc." A,8 F,4 | E,8 A,4 | (C,6 D,2)!>(! E,4 | (F,4 B,,4) C,4!>)! | F,,12 ||"^Bass" F,8 F,4 | %20
w: jah, Hal-|le- lu-|ia, _ Hal-|le- * lu-|jah~!|Come, Thou|
 A,8 C4 | (B,4 A,4) G,4 | A,12 || C8 C4 | D8 C4 | A,8 G,4 | A,12 || C8 A,4 | (G,4 A,4) B,4 | %29
w: Fa- ther|of _ the|poor,|Come, Thou|source of|all our|store,|Come, with-|in _ our|
 (A,4 G,4) F,4 | G,8 F,4 | (E,6 F,2 G,4 | A,8) G,4 | A,8 C4 | (E6 D2) C4 | A,8!ff! G,4 | F,8 ^E,4 | %37
w: bo- * soms|shrine, Hal-|le- * *|* lu-|jah, Hal-|le- * lu-|jah, Hal-|le- lu-|
 F,12 ||"^Bass" (D,4 C,4) B,,4 | A,,8 A,,4 | B,,8 D,4 | F,12 ||!<(! F,8!<)! F,4 | E,8 E,4 | %44
w: jah~!|Thou _ of|Com- fort-|ers the|best,|Thou the|soul's most|
 (F,4 C4) B,4 |!>(! (A,4 G,4!>)!!pp! F,4) || ^E,8 F,4 | C,8 B,,4 | (C,4 E,4) F,4 | E,8!ff! B,,4 | %50
w: wel- * come|guest, _ _|Sweet re-|fresh- ment|here _ be-|low, Hal-|
 (C,8 B,,4 | A,,4 C,4) E,4 | F,8!ff! F,4 | E,8 (A,2 B,2) | (C4 D4)!>(! B,4 | (A,4 G,4)!>)! G,4 | %56
w: le- *|* * lu-|jah, Hal-|le- lu- *|jah, * Hal-|le- * lu-|
!p! F,12 ||!p! F,8 F,4 | A,8 C4 | ((D4 C4)) B,4 | A,12 || z12 | z12 | z12 | z12 || C8 [A,C]4 | %66
w: jah~!|In our|la- bor|rest _ most|sweet,|||||Sol- ace|
 ([G,B,]4 [A,C]4) [B,D]4 | ([A,C]4 [G,B,]4) [F,A,]4 | [C,G,]8!f! F,4 | (E,6 F,2 G,4 | A,8) G,4 | %71
w: in _ the|midst _ of|woe. Hal-|le- * *|\- \-~lu-|
 A,8!ff! F,4 | (E,2 F,2 G,4) G,4 | (A,4 C,2 D,2)!>(! E,4 | (A,,4 B,,4) C,4!>)! | F,12 || %76
w: \-~jah, Hal-|le- * * lu-|jah, _ _ Hal-|le- * lu-|jah~!|
!f! D,8 D,4 | A,8 F,4 | D,8 E,4 | A,,12 || C,8 C,4 | E,8 E,4 | (C,4 D,4) E,4 | A,,12 | %84
w: On the|faith- ful|who a-|dore,|And con-|fess Thee|ev- * er-|more,|
 (A,,4 B,,4) (C,2 D,2) | (E,4 F,4) G,4 | (A,4 ^E,4) F,4 |"^cresc." C,8 F,4 | (G,4 F,4 E,4 | %89
w: In _ Thy _|seven- * fold|gifts _ de-|scend, Hal-|le- * *|
 A,4 C4) B,4 | A,8!ff! A,4 | (G,4 E,4) (F,2 G,2) | A,8 E,4 | (F,4 B,,4) C,4 | F,12 || %95
w: * * lu-|\-~jah, Hal-|le- * lu- *|jah, Hal-|le- * lu-|jah~!|
 !>!B,,8 B,,4 | C,8 C,4 | !>!D,8 E,4 | A,12 || !>!A,8 A,4 | (G,4 F,4) E,4 | (C,4 D,4) E,4 | F,12 || %103
w: Give them|vir- tue's|sure re-|ward,|Give them|Thy _ sal-|\-~va- * tion,|Lord,|
 F,8 F,4 | (E,4 F,4) G,4 | (A,4 G,4) F,4 | E,8 (F,2 G,2) | (A,4 C4 B,4 | A,4 D,4) E,4 | %109
w: Give them|joys _ that|ne- * er|end, Hal- *|\-~le- * *|* * lu-|
 C,8!<(! F,4 | (E,6!<)! D,2) (C,2 B,,2) | (A,,4 C,4) E,4 | (F,4 B,,4)!>(! C,4 | (D,8!>)! C,4) | %114
w: jah, Hal-|le- * lu- *|jah, _ Hal-|\-~le- * \-~le-|jah, _|
 (B,,4 C,4 D,4- | D,4 E,8 | !>!F,12) | !fermata!F,12 |] %118
w: A- * *|||\-~men.|
V:5
 x12 | x12 | x12 | x12 || x12 | x12 | x12 | x12 || x12 | x12 | x12 | x12 | x12 | x12 | x12 | x12 | %16
 x12 | x12 | x12 || x12 | x12 | x12 | x12 || x12 | x12 | x12 | x12 || x12 | x12 | x12 | x12 | x12 | %32
 x12 | x12 | x12 | x12 | x12 | x12 || x12 | x12 | x12 | x12 || x12 | x12 | x12 | x12 || x12 | x12 | %48
 x12 | x12 | x12 | x12 | x12 | x12 | x12 | x12 | x12 || x12 | x12 | (B,4 A,4) G,4 | x12 || x12 | %62
 x12 | x12 | x12 || x12 | x12 | x12 | x12 | x12 | x12 | x12 | x12 | x12 | x12 | x12 || x12 | x12 | %78
 x12 | x12 || x12 | x12 | x12 | x12 | x12 | x12 | x12 | x12 | x12 | x12 | x12 | x12 | x12 | x12 | %94
 x12 || x12 | x12 | x12 | x12 || x12 | x12 | x12 | x12 || x12 | x12 | x12 | x12 | x12 | x12 | x12 | %110
 x12 | x12 | x12 | x12 | x12 | x12 | x12 | x12 |] %118

